X: 4253
T: HAUD AWA' HAME
%R: air, jig
B: James Kerr "Merry Melodies" v.4 p.27 #253
Z: 2016 John Chambers <jc:trillian.mit.edu>
M: 6/8
L: 1/8
K: D
f |\
cfg f2e | faf ecA | cfe f2e | cBA f3 |\
cfg f2e | faf ecA | ABA Bcd | cBA f2 :|
|: d |\
cBA ABA | cBA Bcd | cBA ABc | cBc f3 |\
cBA ABA | cBA Bcd | cfa fed | cBA f2 :|

%%sep 1 1 500
%%sep 1 1 500

